!!!COM: Beethoven
!!!OTL: Acht Variationen uber das Trio "Tandeln und Scherzen" aus der Oper: Soliman oder die drei Sultaninnen von Sussmayer
!!!Variation: Theme a
**function	**harm	**kern	**kern
*M3/8	*M3/8	*staff2	*staff1
*F:	*F:	*clefF4	*clefG2
*tb16	*	*k[b-]	*k[b-]
*	*	*M3/8	*M3/8
*	*	*F:	*F:
=	=	=1-	=1-
4.T	4.I	8F 8A 8c	8fL
.	.	8r	8a
.	.	8F 8A 8c	8fJ
=	=	=2	=2
4.T	4.V	8C 8E 8G 8c	16ccLL
.	.	.	16b
.	.	8r	16cc
.	.	.	16ddJ
.	.	8r	8ccJ
=	=	=3	=3
4.T	4.V7	8C 8E 8G 8c	8b-L
.	.	8r	8g
.	.	8C 8E 8G 8c	8ccJ
=	=	=4	=4
4.T	4.I	8F 8A 8c	8aL
.	.	8r	16gL
.	.	.	16aJ
.	.	8r	8fJ
=	=	=5	=5
4. T	4.I IV/V	8F 8A 8c	8fL
.	.	8r	8a
.	.	8F 8A 8c	8bJ
=	=	=6	=6
4T	4I6/V	8E 8G 8c	16ccLL
.	.	.	16b
.	.	8r	16cc
.	.	.	16ddJ
8T	8I/V	8C	8eeJ
=	=	=7	=7
8P	8ii6/V	8FL	8fL 8a 8dd
8P	8I64/V	8G	8e 8g 8cc
8P	8V7/V	8GGJ	8dJ 8f 8g 8b
=	=	=8	=8
4.D	4.V	4.C;	4.e; 4.g; 4.cc;
=	=	=9	=9
*-	*-	*-	*-
